source/svgs/bowtie/uE9D9-format-indent-decrease.svg

<svg xmlns="http://www.w3.org/2000/svg" viewBox="0 0 448 448" enable-background="new 0 0 448 448"><path d="M448 32v32h-256v-32h256zm-256 416h256v-32h-256v32zm-128-256h96v-32h-96v32zm-64 128h160v-32h-160v32zm339.313-148.687l-22.627-22.627-91.313 91.314 91.313 91.313 22.627-22.627-52.686-52.686h161.373v-32h-161.373l52.686-52.687z"/></svg>

<svg xmlns="http://www.w3.org/2000/svg" viewBox="0 0 448 448"><path d="M448 32v32H192V32h256zM192 448h256v-32H192v32zM64 192h96v-32H64v32zM0 320h160v-32H0v32zm339.313-148.687l-22.627-22.627L225.373 240l91.313 91.313 22.627-22.627L286.627 256H448v-32H286.627l52.686-52.687z"/></svg>
